X: 044
T: the Friendly Visit
B: 204 Favourite Country Dances
N: Published by Straight & Skillern, London ca.1775
F: http://imslp.org/wiki/204_Favourite_Country_Dances_(Various) p.22 #44
Z: 2014 John Chambers <jc:trillian.mit.edu>
M: 2/4
L: 1/8
K: Eb
% - - - - - - - - - - - - - - - - - - - - - - - - -
|:\
e>B TB2 | (3(FGA) (3(GFE) | B,>GB,>G | (3(FGA) (3(GFE) |\
e>B TB2 | (3(gfe) (3(dcB) | (3(bfe) (3(dcB) | (3(FB=A) B2 :|
|:\
e>BB>c | (3(_dcB) c>A | f>cc>=d | (3(edc) d>B |\
b>g (3(gbg) | a>f (3(faf) | (3(gfe) (3(Bed) | e2 E2 :|
% - - - - - - - - - - - - - - - - - - - - - - - - -
%%begintext align
%% The 1st Cu. hey contrary sides .| then on your
%% own sides :| lead down 1 Cu. up again & cast
%% off  .|. Right & Left at top :|:
%%endtext

%%sep 1 1 500
%%sep 1 1 500
